-- a bass drum
d1 $ s "[bd~]*4"
  # gain 1.3
  # shape 0.2  -- アタックを強調
  # s "midi"

d1 $ n "0 2 4 7" # s "midi"

  
-- high-hat pattern
d2 $ s "[~hh]*4"

-- 2. スネア/クラップ: 2拍目と4拍目
d3 $ sound "[~cp]*2"

hush
