setcps(128/60/4)

d1 $
    stack[
    sound "808bd [bd [bd 808bd]] <808bd 808bd:2> [~ ~ <~ bd> bd]" # n "1" # speed "<1 1 1 0.8>",
    sound "~ glitch ~ [sn [glitch glitch]]" # n "2 2 2 4 " # speed "1.3",
    sound "[~ glitch ~ glitch] [~ hc] [~ [hc hc]] [glitch hc] " # n "[0 <9 7> 0 <8 9>] 0 0 [1 3] ",
    sound "glitch(<9 5 12>,16)" # n "0 1 2 3 4 5 6 7" #speed "<3 1> 2 1 1 <5 2>"
]
# shape "0.2"

hush